X:1
T:Title
%%score ( 1 2 ) ( 3 4 )
L:1/8
Q:1/4=140
M:6/4
K:Ab
V:1 treble nm="Grand Piano, Unnamed-000"
V:2 treble 
V:3 bass nm="Choir Pad, Unnamed-001"
V:4 bass 
V:1
 [EA]2 [Ec]4 [DB]2 [CA]4 | [DF]2 [CE]4 [DF]2 [EA]4 | [DA]2 [Ec]4 [EB]2 c2 e2 | %3
w: By~Francois~Barthelemon~(1741\-1808) * * *|||
 [Ec]2 [EB]4- [EB]4- [EB]3/2 z/ | [EA]2 [Ec]4 [DB]2 [CA]4 | [DF]2 E4 [A,C]2 [B,E]4 | %6
w: |||
 [EB]2 c2 e2 [Ed]2 B3 c | [DB]2 [CA]4- [CA]6- | [CA]6 z6 |] %9
w: |||
V:2
 x12 | x12 | z6 z2 E4 | x12 | x12 | x12 | z2 E4 z2 F4 | x12 | x12 |] %9
V:3
 [A,C]2 A,4 [E,G,]2 [F,A,]4 | [D,A,]2 [A,,A,]4 [D,A,]2 [C,A,]4 | z6 z2 A,4 | %3
 [C,A,]2 [E,G,]4- [E,G,]4- [E,G,]3/2 z/ | [F,A,]2 A,4 [E,G,]2 [F,A,]4 | %5
 [D,A,]2 [C,A,]4 [F,A,]2 [E,G,]4 | z2 A,4 z6 | [E,G,]2 [A,,A,]4- [A,,A,]6- | [A,,A,]6 z6 |] %9
V:4
 x12 | x12 | [D,F,]2 [A,,A,]4 .[E,G,]4 C2 | x12 | x12 | x12 | .[E,G,]4 C2 [C,A,]2 [D,A,]4 | x12 | %8
 x12 |] %9

